svg/material-icons/grid_view/materialiconstwotone/24px.svg

<svg xmlns="http://www.w3.org/2000/svg" width="24" height="24" viewBox="0 0 24 24"><path d="M5 5h4v4H5zm0 10h4v4H5zm10 0h4v4h-4zm0-10h4v4h-4z" opacity=".3"/><path d="M3 21h8v-8H3v8zm2-6h4v4H5v-4zm-2-4h8V3H3v8zm2-6h4v4H5V5zm8 16h8v-8h-8v8zm2-6h4v4h-4v-4zM13 3v8h8V3h-8zm6 6h-4V5h4v4z"/></svg>

<svg xmlns="http://www.w3.org/2000/svg" enable-background="new 0 0 24 24" height="24" viewBox="0 0 24 24" width="24"><g><rect fill="none" height="24" width="24"/></g><g><g><rect height="4" opacity=".3" width="4" x="5" y="5"/><rect height="4" opacity=".3" width="4" x="5" y="15"/><rect height="4" opacity=".3" width="4" x="15" y="15"/><rect height="4" opacity=".3" width="4" x="15" y="5"/><path d="M3,21h8v-8H3V21z M5,15h4v4H5V15z"/><path d="M3,11h8V3H3V11z M5,5h4v4H5V5z"/><path d="M13,21h8v-8h-8V21z M15,15h4v4h-4V15z"/><path d="M13,3v8h8V3H13z M19,9h-4V5h4V9z"/></g></g></svg>
